komodo/Komodo-Biru/apps/scalable/chromium-browser.svg

<?xml version="1.0" encoding="UTF-8" standalone="no"?>
<!-- Created with Inkscape (http://www.inkscape.org/) -->

<svg
   xmlns:dc="http://purl.org/dc/elements/1.1/"
   xmlns:cc="http://creativecommons.org/ns#"
   xmlns:rdf="http://www.w3.org/1999/02/22-rdf-syntax-ns#"
   xmlns:svg="http://www.w3.org/2000/svg"
   xmlns="http://www.w3.org/2000/svg"
   xmlns:xlink="http://www.w3.org/1999/xlink"
   xmlns:sodipodi="http://sodipodi.sourceforge.net/DTD/sodipodi-0.dtd"
   xmlns:inkscape="http://www.inkscape.org/namespaces/inkscape"
   width="96"
   height="96"
   id="svg2"
   version="1.1"
   inkscape:version="0.48.1 r9760"
   sodipodi:docname="chromium-browser.svg">
  <defs
     id="defs4">
    <filter
       color-interpolation-filters="sRGB"
       inkscape:collect="always"
       id="filter6279">
      <feGaussianBlur
         inkscape:collect="always"
         stdDeviation="0.8"
         id="feGaussianBlur6281" />
    </filter>
    <linearGradient
       inkscape:collect="always"
       xlink:href="#linearGradient4044"
       id="linearGradient6438"
       gradientUnits="userSpaceOnUse"
       gradientTransform="translate(0,-9.6171873e-6)"
       x1="48"
       y1="1052.3622"
       x2="48"
       y2="902.36218" />
    <linearGradient
       id="linearGradient4044">
      <stop
         id="stop4046-8"
         style="stop-color:#2f5a88;stop-opacity:1"
         offset="0" />
      <stop
         id="stop4048-3"
         style="stop-color:#346396;stop-opacity:0"
         offset="1" />
    </linearGradient>
    <linearGradient
       x1="48"
       y1="90"
       x2="48"
       y2="5.9877172"
       id="linearGradient3987"
       xlink:href="#linearGradient3700-5"
       gradientUnits="userSpaceOnUse"
       gradientTransform="matrix(1.0909091,0,0,1.0909091,-4.3636364,-4.3636364)" />
    <linearGradient
       id="linearGradient3700-5">
      <stop
         id="stop3702-74"
         style="stop-color:#e0e0e0;stop-opacity:1"
         offset="0" />
      <stop
         id="stop3704-18"
         style="stop-color:#ffffff;stop-opacity:1"
         offset="1" />
    </linearGradient>
    <radialGradient
       cx="48"
       cy="-6.5500002"
       r="42"
       fx="48"
       fy="-6.5500002"
       id="radialGradient3883"
       xlink:href="#linearGradient3877"
       gradientUnits="userSpaceOnUse"
       gradientTransform="matrix(1.9047619,0,0,0.625,-43.428571,12.09375)" />
    <linearGradient
       id="linearGradient3877">
      <stop
         id="stop3879"
         style="stop-color:#5f89b7;stop-opacity:1"
         offset="0" />
      <stop
         id="stop3881-5"
         style="stop-color:#4071a0;stop-opacity:1"
         offset="1" />
    </linearGradient>
    <radialGradient
       cx="80.272285"
       cy="57.492752"
       r="21"
       fx="80.272285"
       fy="57.492752"
       id="radialGradient3910"
       xlink:href="#linearGradient3904"
       gradientUnits="userSpaceOnUse"
       gradientTransform="matrix(0,2.6037253,-2.4520544,0,198.1082,-168.17716)" />
    <linearGradient
       id="linearGradient3904">
      <stop
         id="stop3906"
         style="stop-color:#d0e2f1;stop-opacity:1"
         offset="0" />
      <stop
         id="stop3976"
         style="stop-color:#c6dcef;stop-opacity:1"
         offset="0.60882944" />
      <stop
         id="stop3970-9"
         style="stop-color:#b1cfea;stop-opacity:1"
         offset="0.79731107" />
      <stop
         id="stop3908"
         style="stop-color:#92bce3;stop-opacity:1"
         offset="1" />
    </linearGradient>
    <radialGradient
       cx="30.791513"
       cy="55.203083"
       r="30.40625"
       fx="30.791513"
       fy="55.203083"
       id="radialGradient3902"
       xlink:href="#linearGradient3896"
       gradientUnits="userSpaceOnUse"
       gradientTransform="matrix(0,1.6122867,-1.6663814,0,132.20162,-1.5740113)" />
    <linearGradient
       id="linearGradient3896">
      <stop
         id="stop3898"
         style="stop-color:#89b7e1;stop-opacity:1"
         offset="0" />
      <stop
         id="stop3974"
         style="stop-color:#85b4df;stop-opacity:1"
         offset="0.57428855" />
      <stop
         id="stop3972"
         style="stop-color:#77a9d9;stop-opacity:1"
         offset="0.75" />
      <stop
         id="stop3900"
         style="stop-color:#679cd2;stop-opacity:1"
         offset="1" />
    </linearGradient>
    <radialGradient
       cx="45.437672"
       cy="37.516293"
       r="16"
       fx="45.437672"
       fy="37.516293"
       id="radialGradient3873"
       xlink:href="#linearGradient3867-7"
       gradientUnits="userSpaceOnUse"
       gradientTransform="matrix(2.6228142e-8,1.7777777,-2.6666668,3.9342217e-8,148.04345,-47.000303)" />
    <linearGradient
       id="linearGradient3867-7">
      <stop
         id="stop3869-53"
         style="stop-color:#98bbe2;stop-opacity:1"
         offset="0" />
      <stop
         id="stop3871-8"
         style="stop-color:#3878bb;stop-opacity:1"
         offset="1" />
    </linearGradient>
    <linearGradient
       x1="49.922932"
       y1="26.065477"
       x2="55.387222"
       y2="42.517231"
       id="linearGradient4034"
       xlink:href="#linearGradient4044"
       gradientUnits="userSpaceOnUse" />
    <linearGradient
       id="linearGradient6236">
      <stop
         id="stop6238"
         style="stop-color:#2f5a88;stop-opacity:1"
         offset="0" />
      <stop
         id="stop6240"
         style="stop-color:#346396;stop-opacity:0"
         offset="1" />
    </linearGradient>
    <linearGradient
       x1="63.780933"
       y1="63.379192"
       x2="39.036816"
       y2="66.370422"
       id="linearGradient4042"
       xlink:href="#linearGradient4044"
       gradientUnits="userSpaceOnUse" />
    <linearGradient
       id="linearGradient6243">
      <stop
         id="stop6245"
         style="stop-color:#2f5a88;stop-opacity:1"
         offset="0" />
      <stop
         id="stop6247"
         style="stop-color:#346396;stop-opacity:0"
         offset="1" />
    </linearGradient>
    <linearGradient
       y2="30.996477"
       x2="36.988956"
       y1="51.93507"
       x1="25.870298"
       gradientUnits="userSpaceOnUse"
       id="linearGradient3196"
       xlink:href="#linearGradient4044"
       inkscape:collect="always" />
    <linearGradient
       id="linearGradient6250">
      <stop
         id="stop6252"
         style="stop-color:#2f5a88;stop-opacity:1"
         offset="0" />
      <stop
         id="stop6254"
         style="stop-color:#346396;stop-opacity:0"
         offset="1" />
    </linearGradient>
  </defs>
  <sodipodi:namedview
     id="base"
     pagecolor="#ffffff"
     bordercolor="#666666"
     borderopacity="1.0"
     inkscape:pageopacity="0.0"
     inkscape:pageshadow="2"
     inkscape:zoom="3.959798"
     inkscape:cx="28.389459"
     inkscape:cy="57.490015"
     inkscape:document-units="px"
     inkscape:current-layer="layer1"
     showgrid="false"
     inkscape:window-width="1280"
     inkscape:window-height="725"
     inkscape:window-x="0"
     inkscape:window-y="25"
     inkscape:window-maximized="1" />
  <metadata
     id="metadata7">
    <rdf:RDF>
      <cc:Work
         rdf:about="">
        <dc:format>image/svg+xml</dc:format>
        <dc:type
           rdf:resource="http://purl.org/dc/dcmitype/StillImage" />
        <dc:title></dc:title>
      </cc:Work>
    </rdf:RDF>
  </metadata>
  <g
     inkscape:label="Layer 1"
     inkscape:groupmode="layer"
     id="layer1"
     transform="translate(0,-956.36217)">
    <g
       transform="translate(2.861023e-8,-9.5885773e-6)"
       id="g7183">
      <g
         id="g26594"
         transform="translate(-182.1875,-40.40625)" />
      <rect
         ry="5"
         rx="5"
         style="fill:#000000;fill-opacity:1;stroke:none;filter:url(#filter6279)"
         id="rect9283"
         width="80"
         height="80"
         x="8"
         y="964.36218" />
      <rect
         y="964.36218"
         x="8"
         height="80"
         width="80"
         id="rect9285"
         style="fill:url(#linearGradient6438);fill-opacity:1;stroke:none"
         rx="5"
         ry="5" />
      <g
         id="g3119"
         transform="matrix(0.6547619,0,0,0.6547619,16.571429,972.93361)">
        <path
           d="m 46,16 c -3.324,0 -6,2.676 -6,6 l 0,5.5 c 2.47995,-0.968744 5.176988,-1.5 8,-1.5 12.150264,0 22,9.849736 22,22 l 20,0 0,-22 0,-10 -44,0 z"
           inkscape:connector-curvature="0"
           id="path4012"
           style="fill:#dca325;fill-opacity:1;stroke:none" />
        <path
           d="m 69.9375,49.5 c -0.230003,3.446727 -1.239296,6.669962 -2.875,9.5 -0.08047,0.139231 -0.166586,0.268969 -0.25,0.40625 C 62.953981,65.756523 55.973611,70 48,70 45.172194,70 42.483679,69.470777 40,68.5 L 40,90 49.15625,90 72,90 72,54 c 0,-1.806203 -0.80762,-3.401835 -2.0625,-4.5 z"
           inkscape:connector-curvature="0"
           id="path3999"
           style="fill:#3b9342;fill-opacity:1;stroke:none" />
        <path
           d="M 6,16 6,19.28125 6,72 34,72 c 2.503387,0 4.629252,-1.518162 5.53125,-3.6875 C 35.06743,66.448341 31.337219,63.151912 28.9375,59 28.840714,58.832543 28.748712,58.670207 28.65625,58.5 26.962857,55.382748 26,51.796958 26,48 26,38.672748 31.806228,30.700737 40,27.5 L 40,22 c 0,-3.324 -2.676,-6 -6,-6 L 6,16 z"
           inkscape:connector-curvature="0"
           id="path3989"
           style="fill:#df2227;fill-opacity:1;stroke:none" />
        <path
           d="M 48,24 C 34.74516,24 24,34.745164 24,48 24,61.254836 34.74516,72 48,72 61.25484,72 72,61.254836 72,48 72,34.745164 61.25484,24 48,24 z"
           inkscape:connector-curvature="0"
           id="rect3982"
           style="fill:url(#linearGradient3987);fill-opacity:1;fill-rule:nonzero;stroke:none" />
        <path
           d="M 12,6 C 8.676,6 6,8.676 6,12 L 6,19.28125 28.65625,58.5 C 26.962857,55.382748 26,51.796958 26,48 26,35.849736 35.849736,26 48,26 l 42,0 0,-14 C 90,8.676 87.324,6 84,6 L 12,6 z"
           inkscape:connector-curvature="0"
           id="path3824"
           style="fill:url(#radialGradient3883);fill-opacity:1;stroke:none" />
        <path
           d="m 48,26 c 12.150264,0 22,9.849736 22,22 0,4.004278 -1.068124,7.765671 -2.9375,11 -0.08047,0.139231 -0.166586,0.268969 -0.25,0.40625 L 49.15625,90 84,90 c 3.324,0 6,-2.676 6,-6 l 0,-58 -42,0 z"
           inkscape:connector-curvature="0"
           id="path3847"
           style="fill:url(#radialGradient3910);fill-opacity:1;stroke:none" />
        <path
           d="M 6,19.28125 6,84 c 0,3.324 2.676,6 6,6 L 49.15625,90 66.8125,59.40625 C 62.953981,65.756523 55.973611,70 48,70 39.854014,70 32.740409,65.579663 28.9375,59 28.840714,58.832543 28.748712,58.670207 28.65625,58.5 L 6,19.28125 z"
           inkscape:connector-curvature="0"
           id="path3849"
           style="fill:url(#radialGradient3902);fill-opacity:1;stroke:none" />
        <path
           d="m 64,48 a 16,16 0 1 1 -32,0 16,16 0 1 1 32,0 z"
           transform="matrix(1.1875,0,0,1.1875,-9,-9)"
           id="path3822"
           style="color:#000000;fill:url(#radialGradient3873);fill-opacity:1;stroke:none;stroke-width:1;marker:none;visibility:visible;display:inline;overflow:visible;enable-background:accumulate"
           inkscape:connector-curvature="0" />
        <path
           d="m 48,26 c 6.945511,0 13.124331,3.223003 17.15625,8.25 L 90,28.15625 90,26 48,26 z"
           inkscape:connector-curvature="0"
           id="path3929"
           style="opacity:0.3;fill:url(#linearGradient4034);fill-opacity:1;stroke:none" />
        <path
           d="M 66.8125,59.40625 C 63.504218,64.850954 57.900302,68.749576 51.34375,69.75 l -5.9375,20.25 3.75,0 17.65625,-30.59375 z"
           inkscape:connector-curvature="0"
           id="path3933"
           style="opacity:0.25;fill:url(#linearGradient4042);fill-opacity:1;stroke:none" />
        <path
           d="M 6,16.3125 6,19.28125 28.65625,58.5 C 26.962857,55.382748 26,51.796958 26,48 c 0,-2.872424 0.561262,-5.609468 1.5625,-8.125 L 6,16.3125 z"
           inkscape:connector-curvature="0"
           id="path3935"
           style="fill:url(#linearGradient3196);fill-opacity:1;stroke:none" />
      </g>
    </g>
  </g>
</svg>

<?xml version="1.0" encoding="UTF-8" standalone="no"?>
<!-- Created with Inkscape (http://www.inkscape.org/) -->
<svg id="svg2" xmlns:rdf="http://www.w3.org/1999/02/22-rdf-syntax-ns#" xmlns="http://www.w3.org/2000/svg" height="96" width="96" version="1.1" xmlns:cc="http://creativecommons.org/ns#" xmlns:xlink="http://www.w3.org/1999/xlink" xmlns:dc="http://purl.org/dc/elements/1.1/">
 <defs id="defs4">
  <filter id="filter6279" color-interpolation-filters="sRGB">
   <feGaussianBlur id="feGaussianBlur6281" stdDeviation="0.8"/>
  </filter>
  <linearGradient id="linearGradient6438" y2="902.36" xlink:href="#linearGradient4044" gradientUnits="userSpaceOnUse" x2="48" gradientTransform="translate(0 -.0000096172)" y1="1052.4" x1="48"/>
  <linearGradient id="linearGradient4044">
   <stop id="stop4046-8" style="stop-color:#2f5a88" offset="0"/>
   <stop id="stop4048-3" style="stop-color:#346396;stop-opacity:0" offset="1"/>
  </linearGradient>
  <linearGradient id="linearGradient3987" y2="5.9877" gradientUnits="userSpaceOnUse" x2="48" gradientTransform="matrix(1.0909 0 0 1.0909 -4.3636 -4.3636)" y1="90" x1="48">
   <stop id="stop3702-74" style="stop-color:#e0e0e0" offset="0"/>
   <stop id="stop3704-18" style="stop-color:#fff" offset="1"/>
  </linearGradient>
  <radialGradient id="radialGradient3883" gradientUnits="userSpaceOnUse" cy="-6.55" cx="48" gradientTransform="matrix(1.9048 0 0 .625 -43.429 12.094)" r="42">
   <stop id="stop3879" style="stop-color:#5f89b7" offset="0"/>
   <stop id="stop3881-5" style="stop-color:#4071a0" offset="1"/>
  </radialGradient>
  <radialGradient id="radialGradient3910" gradientUnits="userSpaceOnUse" cy="57.493" cx="80.272" gradientTransform="matrix(0 2.6037 -2.4521 0 198.11 -168.18)" r="21">
   <stop id="stop3906" style="stop-color:#d0e2f1" offset="0"/>
   <stop id="stop3976" style="stop-color:#c6dcef" offset=".60883"/>
   <stop id="stop3970-9" style="stop-color:#b1cfea" offset=".79731"/>
   <stop id="stop3908" style="stop-color:#92bce3" offset="1"/>
  </radialGradient>
  <radialGradient id="radialGradient3902" gradientUnits="userSpaceOnUse" cy="55.203" cx="30.792" gradientTransform="matrix(0 1.6123 -1.6664 0 132.2 -1.574)" r="30.406">
   <stop id="stop3898" style="stop-color:#89b7e1" offset="0"/>
   <stop id="stop3974" style="stop-color:#85b4df" offset=".57429"/>
   <stop id="stop3972" style="stop-color:#77a9d9" offset=".75"/>
   <stop id="stop3900" style="stop-color:#679cd2" offset="1"/>
  </radialGradient>
  <radialGradient id="radialGradient3873" gradientUnits="userSpaceOnUse" cy="37.516" cx="45.438" gradientTransform="matrix(2.6228e-8 1.7778 -2.6667 3.9342e-8 148.04 -47)" r="16">
   <stop id="stop3869-53" style="stop-color:#98bbe2" offset="0"/>
   <stop id="stop3871-8" style="stop-color:#3878bb" offset="1"/>
  </radialGradient>
  <linearGradient id="linearGradient4034" y2="42.517" xlink:href="#linearGradient4044" gradientUnits="userSpaceOnUse" x2="55.387" y1="26.065" x1="49.923"/>
  <linearGradient id="linearGradient4042" y2="66.37" xlink:href="#linearGradient4044" gradientUnits="userSpaceOnUse" x2="39.037" y1="63.379" x1="63.781"/>
  <linearGradient id="linearGradient3196" y2="30.996" xlink:href="#linearGradient4044" gradientUnits="userSpaceOnUse" y1="51.935" x2="36.989" x1="25.87"/>
 </defs>
 <metadata id="metadata7">
  <rdf:RDF>
   <cc:Work rdf:about="">
    <dc:format>image/svg+xml</dc:format>
    <dc:type rdf:resource="http://purl.org/dc/dcmitype/StillImage"/>
    <dc:title/>
   </cc:Work>
  </rdf:RDF>
 </metadata>
 <g id="layer1" transform="translate(0 -956.36)">
  <g id="g7183" transform="translate(2.861e-8 -.0000095886)">
   <rect id="rect9283" style="filter:url(#filter6279)" rx="5" ry="5" height="80" width="80" y="964.36" x="8"/>
   <rect id="rect9285" style="fill:url(#linearGradient6438)" rx="5" ry="5" height="80" width="80" y="964.36" x="8"/>
   <g id="g3119" transform="matrix(.65476 0 0 .65476 16.571 972.93)">
    <path id="path4012" style="fill:#dca325" d="m46 16c-3.324 0-6 2.676-6 6v5.5c2.48-0.96874 5.177-1.5 8-1.5 12.15 0 22 9.8497 22 22h20v-22-10h-44z"/>
    <path id="path3999" style="fill:#3b9342" d="m69.938 49.5c-0.23 3.4467-1.2393 6.67-2.875 9.5-0.08047 0.13923-0.16659 0.26897-0.25 0.40625-3.859 6.351-10.839 10.594-18.813 10.594-2.828 0-5.516-0.529-8-1.5v21.5h9.156 22.844v-36c0-1.8062-0.80762-3.4018-2.0625-4.5z"/>
    <path id="path3989" style="fill:#df2227" d="m6 16v3.281 52.719h28c2.5034 0 4.6293-1.5182 5.5312-3.6875-4.464-1.864-8.194-5.16-10.593-9.312-0.097-0.167-0.189-0.33-0.282-0.5-1.693-3.117-2.656-6.703-2.656-10.5 0-9.327 5.806-17.299 14-20.5v-5.5c0-3.324-2.676-6-6-6h-28z"/>
    <path id="rect3982" style="fill:url(#linearGradient3987)" d="m48 24c-13.255 0-24 10.745-24 24s10.745 24 24 24 24-10.745 24-24-10.745-24-24-24z"/>
    <path id="path3824" style="fill:url(#radialGradient3883)" d="m12 6c-3.324 0-6 2.676-6 6v7.281l22.656 39.219c-1.693-3.117-2.656-6.703-2.656-10.5 0-12.15 9.85-22 22-22h42v-14c0-3.324-2.676-6-6-6h-72z"/>
    <path id="path3847" style="fill:url(#radialGradient3910)" d="m48 26c12.15 0 22 9.8497 22 22 0 4.0043-1.0681 7.7657-2.9375 11-0.08047 0.13923-0.16659 0.26897-0.25 0.40625l-17.656 30.594h34.844c3.324 0 6-2.676 6-6v-58h-42z"/>
    <path id="path3849" style="fill:url(#radialGradient3902)" d="m6 19.281v64.719c0 3.324 2.676 6 6 6h37.156l17.656-30.594c-3.858 6.351-10.838 10.594-18.812 10.594-8.146 0-15.26-4.42-19.062-11-0.097-0.167-0.189-0.33-0.282-0.5l-22.656-39.219z"/>
    <path id="path3822" style="color:#000000;fill:url(#radialGradient3873)" d="m64 48a16 16 0 1 1 -32 0 16 16 0 1 1 32 0z" transform="matrix(1.1875,0,0,1.1875,-9,-9)"/>
    <path id="path3929" style="opacity:.3;fill:url(#linearGradient4034)" d="m48 26c6.9455 0 13.124 3.223 17.156 8.25l24.844-6.094v-2.156h-42z"/>
    <path id="path3933" style="opacity:.25;fill:url(#linearGradient4042)" d="m66.812 59.406c-3.308 5.445-8.912 9.344-15.468 10.344l-5.9375 20.25h3.75l17.656-30.594z"/>
    <path id="path3935" style="fill:url(#linearGradient3196)" d="m6 16.312v2.969l22.656 39.219c-1.693-3.117-2.656-6.703-2.656-10.5 0-2.8724 0.56126-5.6095 1.5625-8.125l-21.562-23.563z"/>
   </g>
  </g>
 </g>
</svg>
